X: 3904
T: Blackberry Blossom, The
R: reel
M: 4/4
K: Gmajor
|:ea~a2 abge|dBAc BGGA|~B3A B2eB|dBAc BGG2:|
|:ea ~a2 abef|~g3f gbaf|~g3b ~a2ga|bgaf ged2:|

